icons/centos/centos-plain.svg

<?xml version="1.0" encoding="UTF-8" standalone="no"?>
<svg
   viewBox="0 0 128 128"
   width="128"
   height="128"
   version="1.1"
   id="svg20"
   sodipodi:docname="centos-plain.svg"
   inkscape:version="1.1 (c68e22c387, 2021-05-23)"
   xmlns:inkscape="http://www.inkscape.org/namespaces/inkscape"
   xmlns:sodipodi="http://sodipodi.sourceforge.net/DTD/sodipodi-0.dtd"
   xmlns="http://www.w3.org/2000/svg"
   xmlns:svg="http://www.w3.org/2000/svg">
  <defs
     id="defs24" />
  <sodipodi:namedview
     id="namedview22"
     pagecolor="#ffffff"
     bordercolor="#666666"
     borderopacity="1.0"
     inkscape:pageshadow="2"
     inkscape:pageopacity="0.0"
     inkscape:pagecheckerboard="0"
     showgrid="false"
     inkscape:zoom="6.34375"
     inkscape:cx="64"
     inkscape:cy="64.236453"
     inkscape:window-width="1920"
     inkscape:window-height="1001"
     inkscape:window-x="-9"
     inkscape:window-y="-9"
     inkscape:window-maximized="1"
     inkscape:current-layer="svg20" />
  <path
     id="path16"
     d="M 64.632812 5.7226562 L 52.013672 18.585938 L 60.457031 18.585938 L 60.457031 52.404297 L 64.632812 56.662109 L 68.763672 52.455078 L 68.763672 18.810547 L 77.472656 18.810547 L 64.632812 5.7226562 z M 22.371094 21.355469 L 22.373047 44.257812 L 31.638672 35.011719 L 53.632812 56.970703 L 57.738281 56.970703 L 57.738281 53.552734 L 35.818359 31.195312 L 45.478516 21.355469 L 22.371094 21.355469 z M 49.308594 21.355469 L 39.658203 31.193359 L 57.738281 49.632812 L 57.738281 21.355469 L 49.308594 21.355469 z M 71.486328 21.570312 L 71.484375 49.677734 L 89.611328 31.195312 L 80.181641 21.570312 L 71.486328 21.570312 z M 84.880859 22.453125 L 93.447266 31.195312 L 71.486328 53.59375 L 71.486328 57.191406 L 75.419922 57.191406 L 97.275391 34.900391 L 106.71289 44.521484 L 106.71289 22.453125 L 84.880859 22.453125 z M 97.275391 38.814453 L 79.253906 57.191406 L 106.71289 57.191406 L 106.71289 48.429688 L 97.275391 38.814453 z M 31.642578 38.882812 L 22.371094 48.138672 L 22.371094 56.970703 L 49.759766 56.970703 L 31.642578 38.882812 z M 19.654297 50.845703 L 6.2792969 64.195312 L 19.654297 77.550781 L 19.654297 68.222656 L 52.978516 68.222656 L 57.009766 64.195312 L 52.519531 59.722656 L 19.654297 59.722656 L 19.654297 50.845703 z M 109.43164 51.203125 L 109.42773 59.949219 L 76.550781 59.949219 L 72.300781 64.277344 L 76.160156 68.21875 L 109.19922 68.21875 L 109.19922 77.591797 L 122.25586 64.277344 L 109.43164 51.203125 z M 22.376953 70.976562 L 22.378906 80.263672 L 31.642578 89.519531 L 50.214844 70.976562 L 22.376953 70.976562 z M 54.089844 70.976562 L 31.638672 93.382812 L 22.376953 84.134766 L 22.376953 106.8125 L 44.587891 106.8125 L 35.042969 97.285156 L 57.738281 74.634766 L 57.738281 70.976562 L 54.089844 70.976562 z M 71.345703 70.976562 L 71.345703 75.152344 L 92.560547 96.316406 L 93.525391 97.289062 L 84.914062 105.88477 L 106.47656 105.88477 L 106.47656 84.275391 L 98.236328 92.689453 L 97.275391 93.65625 L 75.033203 70.976562 L 71.345703 70.976562 z M 78.863281 70.976562 L 97.275391 89.744141 L 106.47656 80.365234 L 106.47656 70.976562 L 78.863281 70.976562 z M 64.287109 71.974609 L 60.464844 75.789062 L 60.464844 109.57617 L 51.232422 109.57617 L 64.287109 122.60352 L 77.34375 109.57617 L 68.626953 109.57617 L 68.626953 76.308594 L 64.287109 71.974609 z M 57.740234 78.507812 L 38.923828 97.287109 L 48.470703 106.81445 L 57.740234 106.81445 L 57.740234 78.507812 z M 71.345703 79.019531 L 71.345703 106.82031 L 80.101562 106.82031 L 89.652344 97.287109 L 71.345703 79.019531 z " />
</svg>

<svg width="128" height="128" viewBox="0 0 128 128" xmlns="http://www.w3.org/2000/svg"><path d="m64.633 5.723-12.62 12.863h8.444v33.818l4.176 4.258 4.13-4.207V18.811h8.71L64.633 5.723zM22.37 21.355l.002 22.903 9.266-9.246L53.633 56.97h4.105v-3.418l-21.92-22.358 9.66-9.84H22.372zm26.938 0-9.65 9.838 18.08 18.44V21.355h-8.43zm22.177.215-.002 28.108L89.61 31.195l-9.43-9.625h-8.695zm13.395.883 8.566 8.742-21.96 22.399v3.597h3.933l21.855-22.29 9.438 9.62V22.453H84.88zm12.394 16.361-18.02 18.377h27.459V48.43l-9.438-9.616zm-65.632.069-9.272 9.256v8.832h27.39L31.643 38.883zM19.654 50.846 6.28 64.196 19.654 77.55v-9.328H52.98l4.03-4.028-4.49-4.472H19.655v-8.877zm89.778.357-.004 8.746H76.55l-4.25 4.328 3.86 3.942h33.038v9.373l13.057-13.315-12.824-13.074zM22.377 70.977l.002 9.287 9.264 9.256 18.572-18.543H22.377zm31.713 0L31.639 93.383l-9.262-9.248v22.677h22.21l-9.544-9.527 22.695-22.65v-3.658H54.09zm17.256 0v4.175L92.56 96.316l.964.973-8.61 8.596h21.562v-21.61l-8.24 8.414-.962.967-22.242-22.68h-3.687zm7.517 0 18.412 18.767 9.202-9.379v-9.388H78.863zm-14.576.998-3.822 3.814v33.787h-9.233l13.055 13.028 13.057-13.028h-8.717V76.31l-4.34-4.334zm-6.547 6.533-18.816 18.78 9.547 9.526h9.27V78.508zm13.606.512v27.8h8.756l9.55-9.533L71.346 79.02z"/></svg>
